resources/dark/profile.svg

<svg fill="none" height="16" viewBox="0 0 16 16" width="16" xmlns="http://www.w3.org/2000/svg" xmlns:xlink="http://www.w3.org/1999/xlink"><linearGradient id="a" gradientUnits="userSpaceOnUse" x1="8" x2="8" y1="2" y2="14"><stop offset="0" stop-color="#6b78f5"/><stop offset="1" stop-color="#956bf7"/></linearGradient><path d="m8 2c-3.31372 0-6 2.68628-6 6 0 3.3137 2.68628 6 6 6 3.3137 0 6-2.6863 6-6 0-3.31372-2.6863-6-6-6zm0 1.16129c2.6723 0 4.8387 2.16636 4.8387 4.83871 0 .89473-.2431 1.73252-.6665 2.4515-.1711-.6156-.6209-1.3115-1.5467-1.58165.3069-.48803.4713-1.05338.4713-1.64404 0-1.71022-1.38363-3.09678-3.0968-3.09678-1.71022 0-3.09677 1.38363-3.09677 3.09678 0 .59066.16434 1.15604.47124 1.64404-.92659.27037-1.37603.96564-1.54689 1.58135-.42324-.71892-.66629-1.55662-.66629-2.4512 0-2.67235 2.16636-4.83871 4.83871-4.83871zm1.93548 4.06452c0 1.06894-.86654 1.93548-1.93548 1.93548s-1.93548-.86654-1.93548-1.93548c0-1.06895.86654-1.93549 1.93548-1.93549s1.93548.86654 1.93548 1.93549zm-5.03225 4.49199v-.6716c0-.4938.32733-.9277.80216-1.06339l.59216-.16919c.50105.33108 1.08805.50898 1.70245.50898s1.2014-.1779 1.70248-.509l.59212.16918c.4748.13572.8022.56962.8022 1.06342v.6716c-.8392.6997-1.91874 1.1209-3.0968 1.1209s-2.25762-.4212-3.09677-1.1209z" fill="url(#a)"/></svg>

<svg width="16" height="16" viewBox="0 0 16 16" fill="none" xmlns="http://www.w3.org/2000/svg">
<path d="M8 2C4.68628 2 2 4.68628 2 8C2 11.3137 4.68628 14 8 14C11.3137 14 14 11.3137 14 8C14 4.68628 11.3137 2 8 2ZM8 3.16129C10.6723 3.16129 12.8387 5.32765 12.8387 8C12.8387 8.89473 12.5956 9.73252 12.1722 10.4515C12.0011 9.8359 11.5513 9.14 10.6255 8.86985C10.9324 8.38182 11.0968 7.81647 11.0968 7.22581C11.0968 5.51559 9.71317 4.12903 8 4.12903C6.28978 4.12903 4.90323 5.51266 4.90323 7.22581C4.90323 7.81647 5.06757 8.38185 5.37447 8.86985C4.44788 9.14022 3.99844 9.83549 3.82758 10.4512C3.40434 9.73228 3.16129 8.89458 3.16129 8C3.16129 5.32765 5.32765 3.16129 8 3.16129ZM9.93548 7.22581C9.93548 8.29475 9.06894 9.16129 8 9.16129C6.93106 9.16129 6.06452 8.29475 6.06452 7.22581C6.06452 6.15686 6.93106 5.29032 8 5.29032C9.06894 5.29032 9.93548 6.15686 9.93548 7.22581ZM4.90323 11.7178V11.0462C4.90323 10.5524 5.23056 10.1185 5.70539 9.98281L6.29755 9.81362C6.7986 10.1447 7.3856 10.3226 8 10.3226C8.6144 10.3226 9.2014 10.1447 9.70248 9.8136L10.2946 9.98278C10.7694 10.1185 11.0968 10.5524 11.0968 11.0462V11.7178C10.2576 12.4175 9.17806 12.8387 8 12.8387C6.82194 12.8387 5.74238 12.4175 4.90323 11.7178Z" fill="url(#paint0_linear)"/>
<defs>
<linearGradient id="paint0_linear" x1="8" y1="2" x2="8" y2="14" gradientUnits="userSpaceOnUse">
<stop stop-color="#6B78F5"/>
<stop offset="1" stop-color="#956BF7"/>
</linearGradient>
</defs>
</svg>
